src/assets/power-user.svg

<svg fill="none" height="16" viewBox="0 0 16 16" width="16" xmlns="http://www.w3.org/2000/svg"><rect fill="#825ec6" height="15" rx="7.5" width="15" x=".5" y=".5"/><path d="m10.7707 7.40041h-1.44841v-3.375c0-.7875-.42656-.94688-.94687-.35625l-.375.42656-3.17344 3.60938c-.43594.49218-.25313.89531.40312.89531h1.44844v3.37499c0 .7875.42656.9469.94688.3563l.375-.4266 3.17348-3.60938c.4359-.49219.2531-.89531-.4032-.89531z" fill="#fff"/></svg>

<svg width="16" height="16" viewBox="0 0 16 16" fill="none" xmlns="http://www.w3.org/2000/svg">
    <rect x="0.5" y="0.5" width="15" height="15" rx="7.5" fill="#825EC6" />
    <path
        d="M10.7707 7.40041H9.32229V4.02541C9.32229 3.23791 8.89573 3.07853 8.37542 3.66916L8.00042 4.09572L4.82698 7.7051C4.39104 8.19728 4.57385 8.60041 5.2301 8.60041H6.67854V11.9754C6.67854 12.7629 7.1051 12.9223 7.62542 12.3317L8.00042 11.9051L11.1739 8.29572C11.6098 7.80353 11.427 7.40041 10.7707 7.40041Z"
        fill="white" />
</svg>
